X:1
T:Big Business in Glory
T:Big Business in Glory
T:Edward C. Deas
T:Edward C. Deas, 1921
T:Public Domain Courtesy of the Cyber Hymnal™
T:Public Domain Courtesy of the Cyber Hymnal™
C:Edward C. Deas
Z:Public Domain
Z:Courtesy of the Cyber Hymnal™
%%score ( 1 2 ) ( 3 4 )
L:1/8
Q:1/4=105
M:4/4
K:G
V:1 treble 
V:2 treble 
V:3 bass 
V:4 bass 
V:1
 D>D | [DG]2 [DG]2 [DA]2 [DB]>[DA] | [DG]2 [Dd]4 [DG]>[DF] | [CE] [EG]3 [EG]2 [_EA]2 | %4
w: 1.~I’ve a|bank- ing house up in|glo- ry, And I’m|bank- ing ev- ery|
w: 2.~I’m in-|vest- ing o- ver in|Beu- lah, And my|stocks sur- pass pure|
w: 3.~I’m a|joint heir now, with my|Sav- ior, To the|king- dom up on|
 [DB]6 [DB]>[DB] | [Fd]2 [FA]2 [Fc]2 [FB]>[FA] | [DG]2 [FA]2 [GB]2 [GB]2 | [EA]2 [EG]2 E2 [GB]2 | %8
w: day; My se-|cur- i- ties are in|vaults on high Which|ne- ver can de-|
w: gold; I am|rat- ed there with the|saints of God, Whose|rich- es are un-|
w: high; Soon I’ll|go to join in a|part- ner- ship, Where|plea- sures ne- ver|
 [FA]4- [FA] ||"^Refrain" D[DG][DB] | [Gd]2 [Gd]2 [Fc]>[Gd] [Fc]>[FA] | %11
w: cay. *|||
w: told. *|I have a|great big in- terest in the|
w: die. *|||
 [GB] [GB]3 [=FB]2 [FB]>[FA] | [EG]2 [^DF]2 [EG] [Ec]3 | [DB]6 [DB]>[DB] | x8 | %15
w: ||||
w: glo- ry land, O- ver|on the o- ther|shore; I’ve a||
w: ||||
 [Fd]2 [FA]2 [Fc]2 [FB]>[FA] | [EG] [FA]3 [GB]2 [GB]>[GB] | [FA]2 [EG]2 [^CE] [CB]3 | %18
w: |||
w: man- sion there that is|great and grand, Where I’ll|live for- ev- er-|
w: |||
 [DA]4- [DA]D[DG][DB] | [Gd]2 [Gd]2 [Fc]>[Gd] [Fc]>[FA] | [GB] [GB]3 [=FB]2 [FB]>[FA] | %21
w: |||
w: more; * And then my|mo- ther wait- ing o- ver|there for me, Holds an-|
w: |||
 [EG]2 [^DF]2 [EG] [Ec]3 | [DB]6 [DB]>[DB] | [EA]2 [EA]2 [Ge]2 [Ge]2 | %24
w: |||
w: o- ther heav’n- ly|share; So that|I can live e-|
w: |||
 [Gd]2 [GB]2 !fermata![Gd]2 [DG]>[_EA] | [DB]2"^riten." [GB]2 [FB] [FA]3 | [DG]6 |] %27
w: |||
w: ter- nal- ly On the|trea- sures I have|there.|
w: |||
V:2
 D>D | x8 | x8 | x8 | x8 | x8 | x8 | x4 E2 x2 | x5 || D x2 | x8 | x8 | x8 | x8 | x8 | x8 | x8 | %17
 x8 | x5 D x2 | x8 | x8 | x8 | x8 | x8 | x8 | x8 | x6 |] %27
V:3
 [G,B,]>[G,B,] | [G,B,]2 [G,B,]2 [D,C]2 [D,C]>[D,C] | [G,B,]2 [G,B,]4 [B,,G,]>[B,,G,] | %3
 [C,G,] [C,G,]3 [C,G,]2 [C,G,]2 | [G,,G,]6 G,>G, | [D,A,]2 [D,C]2 [D,E]2 [D,D]>[D,C] | %6
 [G,B,]2 [D,D]2 [G,D]2 [G,D]2 | [A,^C]2 [A,C]2 [A,,A,C]2 [A,,A,C]2 | [D,D]4- [D,D] || %9
 [G,B,][G,B,][G,B,] | [D,B,]2 [D,B,]2 [D,A,]>[D,B,] [D,A,]>[D,D] | %11
 [G,D] [G,D]3 [G,D]2 [G,,D]>[G,,B,] | [C,C]2 [C,C]2 [C,C] [C,G,]3 | [G,,G,]6 G,>G, | %14
 [D,A,]2 [D,D]2 [D,D]2 [D,D]>[D,C] | [E,B,] [D,D]3 [G,D]2 [E,G,]>[E,G,] | %16
 [A,,A,]2 [A,,A,]2 [A,,A,] [A,,G,]3 | [D,F,]4- [D,F,][G,B,][G,B,][G,B,] | %18
 [D,B,]2 [D,B,]2 [D,A,]>[D,B,] [D,A,]>[D,D] | [G,D] [G,D]3 [G,D]2 [G,,D]>[G,,B,] | %20
 [C,C]2 [C,C]2 [C,C] [C,G,]3 | [G,,G,]6 G,>G, | [C,G,]2 [C,A,]2 [^C,^A,]2 [C,A,]2 | %23
 [D,B,]2 [D,D]2 !fermata![D,B,]2 [B,,G,]>[C,G,] | [D,G,]2 [D,B,]2 [D,D] [D,C]3 | [G,,G,B,]6 x2 | %26
 x6 |] %27
V:4
 x2 | x8 | x8 | x8 | x6 G,>G, | x8 | x8 | x8 | x5 || x3 | x8 | x8 | x8 | x6 G,>G, | x8 | x8 | x8 | %17
 x8 | x8 | x8 | x8 | x6 G,>G, | x8 | x8 | x8 | x8 | x6 |] %27

